icons/svg/icons8/tennis.svg

<svg width="26" height="26" viewBox="0 0 26 26" fill="none" xmlns="http://www.w3.org/2000/svg">
<path d="M6.62678 20.523C6.94278 20.839 6.94278 21.357 6.62678 21.673L2.66178 25.636C2.34678 25.952 1.50778 25.804 0.850776 25.148C0.193776 24.492 0.0447756 23.653 0.361776 23.335L4.32578 19.372C4.64178 19.056 5.15878 19.056 5.47578 19.372L6.62678 20.523Z" fill="#333333"/>
<path d="M9.18199 0.188004C10.357 0.232004 11.519 0.688004 12.415 1.584C13.311 2.48 13.769 3.644 13.812 4.818C13.033 4.783 11.864 4.492 10.684 3.314C9.50899 2.139 9.21799 0.969004 9.18199 0.188004ZM4.18799 5.182C4.23199 6.358 4.68799 7.52 5.58399 8.416C6.47999 9.312 7.64399 9.769 8.81799 9.812C8.78099 9.031 8.48899 7.861 7.31399 6.686C6.13999 5.512 4.97099 5.219 4.18799 5.182ZM8.01899 5.98C9.41499 7.375 9.76599 8.794 9.81499 9.751C10.766 9.589 11.681 9.149 12.417 8.415C13.152 7.68 13.591 6.765 13.753 5.811C12.797 5.768 11.377 5.416 9.97999 4.02C8.58499 2.625 8.23399 1.207 8.18699 0.248004C7.23399 0.410004 6.31999 0.850004 5.58499 1.584C4.84999 2.32 4.40999 3.234 4.24799 4.188C5.20799 4.235 6.62599 4.588 8.01899 5.98Z" fill="#333333"/>
<path d="M8.41611 17.584C9.00211 15.468 8.8221 13.051 8.7891 12.68L7.20711 12.82C7.31511 14.06 7.31611 17.561 6.03511 18.842L3.55811 21.319L4.68011 22.443L7.15711 19.965C8.44011 18.683 11.9401 18.685 13.1801 18.793L13.3201 17.211C12.9511 17.178 10.5331 16.998 8.41611 17.584Z" fill="#333333"/>
<path d="M23.802 2.19699C22.514 0.909994 20.857 0.190994 18.996 0.190994C17.539 0.190994 15.954 0.667994 14.326 1.62099C14.685 2.18599 14.955 2.81099 15.12 3.47799C16.453 2.65599 17.777 2.19099 18.996 2.19099C20.285 2.19099 21.458 2.68299 22.388 3.61199C23.468 4.69099 23.947 6.07699 23.772 7.61899C23.56 9.49999 22.411 11.529 20.45 13.492C18.233 15.709 15.993 16.88 13.972 16.88C12.679 16.88 11.534 16.392 10.571 15.428C9.44901 14.307 8.97301 12.952 9.15601 11.403C9.16001 11.37 9.16901 11.337 9.17401 11.304C9.11501 11.305 9.05901 11.313 9.00001 11.313C8.37601 11.313 7.77501 11.219 7.20601 11.05C6.90701 13.287 7.61201 15.299 9.15601 16.842C10.472 18.158 12.126 18.88 13.971 18.88C16.381 18.88 19.118 17.65 21.863 14.906C26.709 10.06 26.761 5.15599 23.802 2.19699Z" fill="#333333"/>
</svg>

<?xml version="1.0" encoding="utf-8"?>
<!-- Generator: Adobe Illustrator 15.0.0, SVG Export Plug-In . SVG Version: 6.00 Build 0)  -->
<!DOCTYPE svg PUBLIC "-//W3C//DTD SVG 1.1//EN" "http://www.w3.org/Graphics/SVG/1.1/DTD/svg11.dtd">
<svg version="1.1" id="Layer_1" xmlns="http://www.w3.org/2000/svg" xmlns:xlink="http://www.w3.org/1999/xlink" x="0px" y="0px"
	 width="26px" height="26px" viewBox="0 0 26 26" enable-background="new 0 0 26 26" xml:space="preserve">
<path fill="#333333" d="M6.627,20.523c0.316,0.316,0.316,0.834,0,1.15l-3.965,3.963c-0.315,0.316-1.154,0.168-1.811-0.488
	s-0.806-1.495-0.489-1.813l3.964-3.963c0.316-0.316,0.833-0.316,1.15,0L6.627,20.523z"/>
<g>
	<path fill="#333333" d="M9.182,0.188c1.175,0.044,2.337,0.5,3.233,1.396s1.354,2.06,1.397,3.234
		c-0.779-0.035-1.948-0.326-3.128-1.504C9.509,2.139,9.218,0.969,9.182,0.188z M4.188,5.182c0.044,1.176,0.5,2.338,1.396,3.234
		s2.06,1.353,3.234,1.396C8.781,9.031,8.489,7.861,7.314,6.686C6.14,5.512,4.971,5.219,4.188,5.182z M8.019,5.98
		c1.396,1.395,1.747,2.814,1.796,3.771c0.951-0.162,1.866-0.602,2.602-1.336c0.735-0.735,1.174-1.65,1.336-2.604
		C12.797,5.768,11.377,5.416,9.98,4.02C8.585,2.625,8.234,1.207,8.187,0.248C7.234,0.41,6.32,0.85,5.585,1.584
		C4.85,2.32,4.41,3.234,4.248,4.188C5.208,4.235,6.626,4.588,8.019,5.98z"/>
</g>
<rect fill="none" width="26" height="26"/>
<rect fill="none" width="26" height="26"/>
<path fill="#333333" d="M8.416,17.584c0.586-2.116,0.406-4.533,0.373-4.904l-1.582,0.14c0.108,1.24,0.109,4.741-1.172,6.022
	l-2.477,2.477l1.122,1.124l2.477-2.478c1.283-1.282,4.783-1.28,6.023-1.172l0.14-1.582C12.951,17.178,10.533,16.998,8.416,17.584z"
	/>
<path fill="#333333" d="M23.802,2.197c-1.288-1.287-2.945-2.006-4.806-2.006c-1.457,0-3.042,0.477-4.67,1.43
	c0.359,0.565,0.629,1.19,0.794,1.857c1.333-0.822,2.657-1.287,3.876-1.287c1.289,0,2.462,0.492,3.392,1.421
	c1.08,1.079,1.559,2.465,1.384,4.007c-0.212,1.881-1.361,3.91-3.322,5.873c-2.217,2.217-4.457,3.388-6.478,3.388
	c-1.293,0-2.438-0.488-3.401-1.452c-1.122-1.121-1.598-2.476-1.415-4.025c0.004-0.033,0.013-0.066,0.018-0.099
	C9.115,11.305,9.059,11.313,9,11.313c-0.624,0-1.225-0.094-1.794-0.263c-0.299,2.237,0.406,4.249,1.95,5.792
	c1.316,1.316,2.97,2.038,4.815,2.038c2.41,0,5.147-1.23,7.892-3.974C26.709,10.06,26.761,5.156,23.802,2.197z"/>
</svg>
